X:1
T:Title
%%score { ( 1 3 ) | ( 2 4 ) }
L:1/8
M:4/4
K:C
V:1 treble nm="Grand Piano"
V:3 treble 
V:2 bass 
V:4 bass 
V:1
 z4 z2[Q:1/4=110] [CE]>[DF] | [EG]2 [Ec]2 [Ec]2 [Ec]2 | [Fc]2 [FB]2 [FB]2 [FA]2 | %3
 [FA]2 [EG]2 [B,G]2 [DF]2 | [DF]4 z4 | [G,EG]2 [Ec]2 [Ec]2 [Ec]2 | c2 B2 B2 [Ec]2 | %7
 [Dd]3 [Ec] [DB]2 [CA]2 | [G,B,G]6 G2 | G2 B2 e2 d2 | [EG]6 [CEG]2 | [CFA]2 [Fc]2 [^Fc]2 [Fe]2 | %12
 d6 G2 | [EGc]2 c2 c2 c2 | d2 c2 c>B c>d | e2 c2 d3 [Ec] |[M:3/4] [Ec]6 |[M:1/4] [EG]2 | %18
[M:4/4] G2 B2 e2 d2 | [EG]6 [CEG]>[CEG] | [CFA]2 [CAc]2 [CGB]2 [CFA]2 | [CEG]6 [CEG]2 | %22
 F2- [FB]2 e2 d2 | c2 [^GB]2 A2 c2 | G3 G A2 B2 |[M:3/4] [Ec]6 |] %26
V:2
 z4 z2 [C,G,]2 | [C,G,]2 [G,,G,]2 [C,G,]2 [G,,G,]2 | [D,G,]2 [G,,G,]2 [D,G,]2 [G,,G,]2 | %3
 [B,,G,]2 [G,,G,]2 [D,G,]2 [G,,G,]2 | z4 z2 C2 | C,2 [C,G,]2 [C,G,]2 [C,G,]2 | %6
 [D,G,D]2 [D,G,D]2 [D,G,D]2 [C,G,]2 | [B,,G,]3 [C,G,] [D,G,]2 [D,F,]2 | G,,6 G,2 | %9
 [G,B,F]2 [G,DF]2 [G,B,G]2 [G,F]2 | z2 G,2 C2 C,2 | F,2 [F,A,]2 [D,A,]2 [D,C]2 | [G,B,G]6 G,2 | %13
 C,2[K:treble] [CEG]2 [B,EG]2 [_B,EG]2 | [A,CE]2 [A,CF]2 [^G,CF]2 [G,C^F]2 | %15
 [G,CG]2 [G,CE]2 [G,B,F]3[K:bass] [C,C] |[M:3/4] [C,C]6 |[M:1/4] [C,C]2 | %18
[M:4/4][K:treble] [G,B,F]2 [G,DF]2 [G,B,G]2 [G,F]2 | z2 G,2 C2 C,>C, | F,2 F,2 F,2 F,2 | C,6 C,2 | %22
 z2[K:treble] D2 [G,B,G]2 [^G,B,F]2 | [A,CE]2 [E,D]2 [F,C]2 [^F,A,_E]2 | %24
 [G,CE]3 [G,CE] [G,CF]2 [G,DF]2 |[M:3/4][K:bass] [C,C]6 |] %26
V:3
 x8 | x8 | x8 | x8 | z2 G,2 E2 E>F | x8 | x8 | x8 | x8 | x8 | C2 z2 z4 | x8 | x8 | x8 | x8 | x8 | %16
[M:3/4] x6 |[M:1/4] x2 |[M:4/4] x8 | C2 z2 z4 | x8 | x8 | [B,G]2 z2 z4 | x8 | x8 |[M:3/4] x6 |] %26
V:4
 x8 | x8 | x8 | x8 | [C,G,]2 G,,2 [C,G,C]2 [C,G,]->[C,G,D] | x8 | x8 | x8 | x8 | x8 | C,6 z2 | x8 | %12
 x8 | x2[K:treble] x6 | x8 | x7[K:bass] x |[M:3/4] x6 |[M:1/4] x2 |[M:4/4][K:treble] x8 | C,6 z2 | %20
 x8 | x8 | G,4[K:treble] z4 | x8 | x8 |[M:3/4][K:bass] x6 |] %26

